X: 159
T:Banks of Loch Ness
M:C
L:1/8
K:Bb
"Gm"D<GG>A B>c d2|"Bb"F<FF>D F2 F<B|"Gm"G<GG>A B>cd<f|d/2-c/2B/2A/2 "D"d
>[D^F] "Gm"[B,2G2][B,G]:||!
f|"Bb"d>Bf>B g>Bd>f|"Dm"F<FF>D F2 F<f|"Bb"d>fB>d "Cm"c>Bc<d|"Gm"G<G"D"G>
^F "G"G2 Gf|!
"Bb"d>Bf>B g>Bf>e|"Gm"d>B"Cm"c>A "Gm"B>G"Dm"F-D|"Gm"b>ag>f "Bb"db-aG-|"D
"Ae-d^F "Gm"[B,2G2][B,G]||
% <A name="D1X160"></A>

